lib/brands/icons/adobe-premiere.svg

<svg xmlns="http://www.w3.org/2000/svg" fill="none" aria-hidden="true" viewBox="0 0 48 48"><g id="adobe-premiere-Icon"><g id="Group"><path id="bg" fill="#00005B" d="M6 19.0286C6 14.4681 6 12.1879 6.88752 10.4461C7.6682 8.9139 8.9139 7.6682 10.4461 6.88752C12.1879 6 14.4681 6 19.0286 6H28.9714C33.5319 6 35.8121 6 37.5539 6.88752C39.0861 7.6682 40.3318 8.9139 41.1125 10.4461C42 12.1879 42 14.4681 42 19.0286V28.9714C42 33.5319 42 35.8121 41.1125 37.5539C40.3318 39.0861 39.0861 40.3318 37.5539 41.1125C35.8121 42 33.5319 42 28.9714 42H19.0286C14.4681 42 12.1879 42 10.4461 41.1125C8.9139 40.3318 7.6682 39.0861 6.88752 37.5539C6 35.8121 6 33.5319 6 28.9714V19.0286Z"/><g id="Vector"><path fill="#9999FF" d="M13.7144 31.4516V15.2674C13.7144 15.1573 13.7595 15.0944 13.8648 15.0944C15.4195 15.0944 16.9735 15 18.5287 15C21.0521 15 23.7844 15.8795 24.7422 18.5703C24.9678 19.2309 25.0882 19.9072 25.0882 20.6149C25.0882 21.9675 24.7873 23.0842 24.1855 23.965C22.5045 26.4254 19.5908 26.3871 16.9791 26.3871V31.4359C16.9995 31.5853 16.8745 31.656 16.7534 31.656H13.8949C13.7745 31.656 13.7144 31.5931 13.7144 31.4516ZM16.9941 18.1299V23.4145C18.0297 23.4919 19.1134 23.5002 20.1084 23.1629C21.2069 22.8399 21.8084 21.8707 21.8084 20.7093C21.839 19.7197 21.3099 18.7701 20.4093 18.413C19.4262 17.9964 18.0553 17.9714 16.9941 18.1299Z"/><path fill="#9999FF" d="M27.1276 19.1296H29.7679C29.9135 19.1309 30.0442 19.2361 30.0827 19.3829C30.2762 19.832 30.3 20.3736 30.3007 20.8585C30.7535 20.3073 31.2995 19.8481 31.9114 19.5038C32.5678 19.1155 33.3119 18.9187 34.0658 18.934C34.191 18.9153 34.3018 19.0311 34.2839 19.1619V22.2259C34.2839 22.3442 34.2028 22.4032 34.0417 22.4032C32.9241 22.3225 31.1843 22.5986 30.3722 23.5173V31.4842C30.3722 31.6361 30.3076 31.7121 30.1785 31.7121H27.3456C27.2065 31.733 27.0837 31.602 27.1034 31.4588V22.8083C27.1034 21.6492 27.1274 20.4551 26.9581 19.3069C26.932 19.2012 27.0288 19.103 27.1276 19.1296Z"/></g></g></g></svg>

<svg xmlns="http://www.w3.org/2000/svg" fill="none" aria-hidden="true" viewBox="0 0 48 48"><path fill="#00005B" d="M6 19.029c0-4.56 0-6.841.888-8.583a8.143 8.143 0 0 1 3.558-3.558C12.188 6 14.468 6 19.03 6h9.942c4.56 0 6.841 0 8.583.888a8.143 8.143 0 0 1 3.558 3.558C42 12.188 42 14.468 42 19.03v9.942c0 4.56 0 6.841-.888 8.583a8.143 8.143 0 0 1-3.558 3.558C35.812 42 33.532 42 28.97 42h-9.94c-4.56 0-6.841 0-8.583-.888a8.143 8.143 0 0 1-3.558-3.558C6 35.812 6 33.532 6 28.97v-9.94Z"/><path fill="#99F" d="M13.714 31.452V15.267c0-.11.045-.173.15-.173 1.555 0 3.11-.094 4.665-.094 2.523 0 5.255.88 6.213 3.57.226.66.346 1.337.346 2.045 0 1.353-.3 2.47-.902 3.35-1.681 2.46-4.595 2.422-7.207 2.422v5.049c.02.15-.104.22-.226.22h-2.858c-.12 0-.18-.063-.18-.204Zm3.28-13.322v5.285c1.036.077 2.12.085 3.114-.252 1.099-.323 1.7-1.292 1.7-2.454.031-.99-.498-1.939-1.399-2.296-.983-.417-2.354-.442-3.415-.283Zm10.134 1h2.64a.335.335 0 0 1 .315.253c.193.449.217.99.218 1.476a5.711 5.711 0 0 1 1.61-1.355 4.066 4.066 0 0 1 2.155-.57c.125-.019.236.097.218.228v3.064c0 .118-.081.177-.242.177-1.118-.08-2.858.196-3.67 1.114v7.967c0 .152-.064.228-.194.228h-2.832c-.14.021-.262-.11-.243-.253v-8.65c0-1.16.024-2.354-.145-3.502-.026-.106.07-.204.17-.177Z"/></svg>
